docs/examples/te_gemma/media/fp8_model_init_2_half.svg

<?xml version="1.0" encoding="UTF-8" standalone="no"?>
<svg
   width="960"
   height="379.95526"
   overflow="hidden"
   version="1.1"
   id="svg19"
   xmlns="http://www.w3.org/2000/svg"
   xmlns:svg="http://www.w3.org/2000/svg">
  <defs
     id="defs19">
    <clipPath
       clipPathUnits="userSpaceOnUse"
       id="clipPath20">
      <rect
         style="fill:none"
         id="rect21"
         width="1014.7587"
         height="379.95526"
         x="-21.430403"
         y="44.598408" />
    </clipPath>
  </defs>
  <g
     id="g19"
     clip-path="url(#clipPath20)"
     transform="translate(0,-44.598408)">
    <rect
       x="0"
       y="0"
       width="960"
       height="480"
       fill="#ffffff"
       id="rect1" />
    <path
       d="M 471,66 V 409.312"
       stroke="#000000"
       stroke-width="2"
       stroke-miterlimit="8"
       fill="none"
       fill-rule="evenodd"
       id="path1" />
    <text
       font-family="'NVIDIA Sans', 'NVIDIA Sans_MSFontService', sans-serif"
       font-weight="700"
       font-size="22px"
       transform="translate(267.606,98)"
       id="text1">FP8</text>
    <text
       font-family="'NVIDIA Sans', 'NVIDIA Sans_MSFontService', sans-serif"
       font-weight="700"
       font-size="22px"
       transform="translate(572.588,98)"
       id="text2">FP8 with fp8_model_init()</text>
    <rect
       x="519"
       y="222"
       width="129"
       height="164"
       stroke="#042433"
       stroke-width="2"
       stroke-miterlimit="8"
       fill="#e8e8e8"
       id="rect2" />
    <rect
       x="533"
       y="259"
       width="101"
       height="45"
       stroke="#000000"
       stroke-width="2"
       stroke-linejoin="round"
       stroke-miterlimit="10"
       fill="#d9f2d0"
       id="rect3" />
    <text
       font-family="'NVIDIA Sans', 'NVIDIA Sans_MSFontService', sans-serif"
       font-weight="400"
       font-size="13px"
       transform="translate(571.603,277)"
       id="text3">FP8</text>
    <text
       font-family="'NVIDIA Sans', 'NVIDIA Sans_MSFontService', sans-serif"
       font-weight="400"
       font-size="13px"
       transform="translate(562.516,293)"
       id="text4">weight</text>
    <rect
       x="730"
       y="259"
       width="82"
       height="45"
       stroke="#000000"
       stroke-width="2"
       stroke-linejoin="round"
       stroke-miterlimit="10"
       fill="#c1e5f5"
       id="rect4" />
    <text
       font-family="'NVIDIA Sans', 'NVIDIA Sans_MSFontService', sans-serif"
       font-weight="400"
       font-size="13px"
       transform="translate(758.696,277)"
       id="text5">FP8</text>
    <text
       font-family="'NVIDIA Sans', 'NVIDIA Sans_MSFontService', sans-serif"
       font-weight="400"
       font-size="13px"
       transform="translate(750.029,293)"
       id="text6">GEMM</text>
    <path
       d="m 634,280 h 89.041 v 2 H 634 Z m 87.708,-3 8,4 -8,4 z"
       id="path6" />
    <path
       d="m 771,176.99 0.726,75.414 -2,0.019 L 769,177.01 Z m 3.713,74.052 -3.923,8.038 -4.077,-7.961 z"
       id="path7" />
    <rect
       x="98"
       y="222"
       width="129"
       height="164"
       stroke="#042433"
       stroke-width="2"
       stroke-miterlimit="8"
       fill="#e8e8e8"
       id="rect7" />
    <rect
       x="112"
       y="246"
       width="104"
       height="72"
       stroke="#000000"
       stroke-width="2"
       stroke-linejoin="round"
       stroke-miterlimit="10"
       fill="#d9f2d0"
       id="rect8" />
    <text
       font-family="'NVIDIA Sans', 'NVIDIA Sans_MSFontService', sans-serif"
       font-weight="400"
       font-size="13px"
       transform="translate(149.508,270)"
       id="text8">High</text>
    <text
       font-family="'NVIDIA Sans', 'NVIDIA Sans_MSFontService', sans-serif"
       font-weight="400"
       font-size="13px"
       transform="translate(135.755,286)"
       id="text9">precision</text>
    <text
       font-family="'NVIDIA Sans', 'NVIDIA Sans_MSFontService', sans-serif"
       font-weight="400"
       font-size="13px"
       transform="translate(142.755,302)"
       id="text10">weight</text>
    <rect
       x="256"
       y="259"
       width="82"
       height="45"
       stroke="#000000"
       stroke-width="2"
       stroke-linejoin="round"
       stroke-miterlimit="10"
       fill="#fbe3d6"
       id="rect10" />
    <text
       font-family="'NVIDIA Sans', 'NVIDIA Sans_MSFontService', sans-serif"
       font-weight="400"
       font-size="13px"
       transform="translate(284.957,277)"
       id="text11">FP8</text>
    <text
       font-family="'NVIDIA Sans', 'NVIDIA Sans_MSFontService', sans-serif"
       font-weight="400"
       font-size="13px"
       transform="translate(274.457,293)"
       id="text12">Weight</text>
    <rect
       x="353"
       y="130"
       width="97"
       height="44"
       stroke="#000000"
       stroke-width="2"
       stroke-linejoin="round"
       stroke-miterlimit="10"
       fill="#d9f2d0"
       id="rect12" />
    <text
       font-family="'NVIDIA Sans', 'NVIDIA Sans_MSFontService', sans-serif"
       font-weight="400"
       font-size="13px"
       transform="translate(389.306,148)"
       id="text13">FP8</text>
    <text
       font-family="'NVIDIA Sans', 'NVIDIA Sans_MSFontService', sans-serif"
       font-weight="400"
       font-size="13px"
       transform="translate(385.139,164)"
       id="text14">input</text>
    <rect
       x="361"
       y="259"
       width="81"
       height="45"
       stroke="#000000"
       stroke-width="2"
       stroke-linejoin="round"
       stroke-miterlimit="10"
       fill="#c1e5f5"
       id="rect14" />
    <text
       font-family="'NVIDIA Sans', 'NVIDIA Sans_MSFontService', sans-serif"
       font-weight="400"
       font-size="13px"
       transform="translate(389.306,277)"
       id="text15">FP8</text>
    <text
       font-family="'NVIDIA Sans', 'NVIDIA Sans_MSFontService', sans-serif"
       font-weight="400"
       font-size="13px"
       transform="translate(380.639,293)"
       id="text16">GEMM</text>
    <path
       d="M 0.015735,-0.999876 34.0184,-0.464776 33.987,1.53498 -0.015735,0.999876 Z M 32.7325,-3.48538 40.6686,0.64 32.6066,4.51362 Z"
       transform="matrix(1,0,0,-1,216,281.64)"
       id="path16" />
    <path
       d="m 338,280 h 15.791 v 2 H 338 Z m 14.458,-3 8,4 -8,4 z"
       id="path17" />
    <path
       d="m 402,174 v 78.156 h -2 V 174 Z m 3,76.822 -4,8 -4,-8 z"
       id="path18" />
    <rect
       x="722"
       y="132"
       width="96"
       height="45"
       stroke="#000000"
       stroke-width="2"
       stroke-linejoin="round"
       stroke-miterlimit="10"
       fill="#d9f2d0"
       id="rect18" />
    <text
       font-family="'NVIDIA Sans', 'NVIDIA Sans_MSFontService', sans-serif"
       font-weight="400"
       font-size="13px"
       transform="translate(757.906,151)"
       id="text18">FP8</text>
    <text
       font-family="'NVIDIA Sans', 'NVIDIA Sans_MSFontService', sans-serif"
       font-weight="400"
       font-size="13px"
       transform="translate(753.739,167)"
       id="text19">input</text>
  </g>
</svg>

<svg width="960" height="480" xmlns="http://www.w3.org/2000/svg" xmlns:xlink="http://www.w3.org/1999/xlink" overflow="hidden"><g><rect x="0" y="0" width="960" height="480" fill="#FFFFFF"/><path d="M471 66 471 409.312" stroke="#000000" stroke-width="2" stroke-miterlimit="8" fill="none" fill-rule="evenodd"/><text font-family="NVIDIA Sans,NVIDIA Sans_MSFontService,sans-serif" font-weight="700" font-size="22" transform="translate(267.606 98)">FP8</text><text font-family="NVIDIA Sans,NVIDIA Sans_MSFontService,sans-serif" font-weight="700" font-size="22" transform="translate(572.588 98)">FP8 with fp8_model_init()</text><rect x="519" y="222" width="129" height="164" stroke="#042433" stroke-width="2" stroke-miterlimit="8" fill="#E8E8E8"/><rect x="533" y="259" width="101" height="45" stroke="#000000" stroke-width="2" stroke-linejoin="round" stroke-miterlimit="10" fill="#D9F2D0"/><text font-family="NVIDIA Sans,NVIDIA Sans_MSFontService,sans-serif" font-weight="400" font-size="13" transform="translate(571.603 277)">FP8</text><text font-family="NVIDIA Sans,NVIDIA Sans_MSFontService,sans-serif" font-weight="400" font-size="13" transform="translate(562.516 293)">weight</text><rect x="730" y="259" width="82" height="45" stroke="#000000" stroke-width="2" stroke-linejoin="round" stroke-miterlimit="10" fill="#C1E5F5"/><text font-family="NVIDIA Sans,NVIDIA Sans_MSFontService,sans-serif" font-weight="400" font-size="13" transform="translate(758.696 277)">FP8</text><text font-family="NVIDIA Sans,NVIDIA Sans_MSFontService,sans-serif" font-weight="400" font-size="13" transform="translate(750.029 293)">GEMM</text><path d="M634 280 723.041 280 723.041 282 634 282ZM721.708 277 729.708 281 721.708 285Z"/><path d="M771 176.99 771.726 252.404 769.726 252.423 769 177.01ZM774.713 251.042 770.79 259.08 766.713 251.119Z"/><rect x="98" y="222" width="129" height="164" stroke="#042433" stroke-width="2" stroke-miterlimit="8" fill="#E8E8E8"/><rect x="112" y="246" width="104" height="72" stroke="#000000" stroke-width="2" stroke-linejoin="round" stroke-miterlimit="10" fill="#D9F2D0"/><text font-family="NVIDIA Sans,NVIDIA Sans_MSFontService,sans-serif" font-weight="400" font-size="13" transform="translate(149.508 270)">High</text><text font-family="NVIDIA Sans,NVIDIA Sans_MSFontService,sans-serif" font-weight="400" font-size="13" transform="translate(135.755 286)">precision</text><text font-family="NVIDIA Sans,NVIDIA Sans_MSFontService,sans-serif" font-weight="400" font-size="13" transform="translate(142.755 302)">weight</text><rect x="256" y="259" width="82" height="45" stroke="#000000" stroke-width="2" stroke-linejoin="round" stroke-miterlimit="10" fill="#FBE3D6"/><text font-family="NVIDIA Sans,NVIDIA Sans_MSFontService,sans-serif" font-weight="400" font-size="13" transform="translate(284.957 277)">FP8</text><text font-family="NVIDIA Sans,NVIDIA Sans_MSFontService,sans-serif" font-weight="400" font-size="13" transform="translate(274.457 293)">Weight</text><rect x="353" y="130" width="97" height="44" stroke="#000000" stroke-width="2" stroke-linejoin="round" stroke-miterlimit="10" fill="#D9F2D0"/><text font-family="NVIDIA Sans,NVIDIA Sans_MSFontService,sans-serif" font-weight="400" font-size="13" transform="translate(389.306 148)">FP8</text><text font-family="NVIDIA Sans,NVIDIA Sans_MSFontService,sans-serif" font-weight="400" font-size="13" transform="translate(385.139 164)">input</text><rect x="361" y="259" width="81" height="45" stroke="#000000" stroke-width="2" stroke-linejoin="round" stroke-miterlimit="10" fill="#C1E5F5"/><text font-family="NVIDIA Sans,NVIDIA Sans_MSFontService,sans-serif" font-weight="400" font-size="13" transform="translate(389.306 277)">FP8</text><text font-family="NVIDIA Sans,NVIDIA Sans_MSFontService,sans-serif" font-weight="400" font-size="13" transform="translate(380.639 293)">GEMM</text><path d="M0.015735-0.999876 34.0184-0.464776 33.987 1.53498-0.015735 0.999876ZM32.7325-3.48538 40.6686 0.64 32.6066 4.51362Z" transform="matrix(1 0 0 -1 216 281.64)"/><path d="M338 280 353.791 280 353.791 282 338 282ZM352.458 277 360.458 281 352.458 285Z"/><path d="M402 174 402 252.156 400 252.156 400 174ZM405 250.822 401 258.822 397 250.822Z"/><rect x="722" y="132" width="96" height="45" stroke="#000000" stroke-width="2" stroke-linejoin="round" stroke-miterlimit="10" fill="#D9F2D0"/><text font-family="NVIDIA Sans,NVIDIA Sans_MSFontService,sans-serif" font-weight="400" font-size="13" transform="translate(757.906 151)">FP8</text><text font-family="NVIDIA Sans,NVIDIA Sans_MSFontService,sans-serif" font-weight="400" font-size="13" transform="translate(753.739 167)">input</text></g></svg>
